X:1
T:When I Stand in Yonder City
T:When I Stand in Yonder City
T:James Milton Black
T:Amelia Minerva Starkweather, 1908
T:Public Domain Courtesy of the Cyber Hymnal™
T:Public Domain Courtesy of the Cyber Hymnal™
C:James Milton Black
Z:Public Domain
Z:Courtesy of the Cyber Hymnal™
%%score 1 ( 2 3 )
L:1/8
Q:1/4=96
M:4/4
K:A
V:1 treble 
V:2 bass 
V:3 bass 
V:1
 [A,C][B,D] | [CE][CE][CE][CE] [DF][CE][CA][DB] | [Ec][EA][Fd][Fd] [Ec]2 [Ec][Ec] | %3
w: 1.~When I|stand in yon- der ci- ty, with its|man- sions bright and fair, And be-|
w: 2.~When I|stand in yon- der ci- ty, and my|work on earth is done, I shall|
w: 3.~When I|stand in yon- der ci- ty, there’s a-|no- ther I shall see, Who is|
 [DB][DF][DF][EG] [FA][FB][FA][DF] | [CE]6 [A,C][B,D] | [CE][CE][CE][CE] [DF][CE][CA][DB] | %6
w: hold the an- gels robed in spot- less|white, As I|join the hal- le- lu- jahs of the|
w: know my la- bors have not been in|vain; I shall|bear a gold- en scep- ter, for the|
w: fair- er than ten thou- sand saints a-|bove; I shall|see the Lord of glo- ry, who hath|
 [Ec][EA][Fd][Fd] [Ec]2 [Ec][Ec] | [DB][DF][DF][FB] [EA][EG][DF][DG] | [CA]6 || %9
w: saved in glo- ry there, Shall I|see you in that ci- ty of de-|light?|
w: souls that I have won From the|chains of bond- age to e- ter- nal|gain.|
w: lived and died for me, And who|loves me with an ev- er- last- ing|love.|
"^Refrain" [CE][CA] | [Ec]4- [Ec][CE][DF][CE] | [CE] [CA]3- [CA]2 [EA][EA] | %12
w: When I|stand * in yon- der|ci- ty, * With its|
w: |||
w: |||
 [FA]3 [FB] [FA]2 [DF]2 | [CE]6 [CE][CA] | [Ec]4- [Ec][Ee][DF][Fd] | [Fd] [Ec]3- [Ec]2 [Ec][Ec] | %16
w: man- sions bright and|fair, Shall I|see * you there my|bro- ther? * Will you|
w: ||||
w: ||||
 [DB][DF][DF][FB] [EA][EG]!fermata![Ec][DB] | [CA]6 |] %18
w: meet me in that ci- ty o- ver|there?|
w: ||
w: ||
V:2
 [A,,E,][A,,E,] | [A,,A,][A,,A,][A,,A,][A,,A,] [A,,A,][A,,A,][A,,A,][A,,A,] | %2
w: ~ ~|~ ~ ~ ~ ~ ~ ~ ~|
 [A,,A,][C,A,][D,A,][D,A,] [A,,A,]2 [A,,A,][A,,A,] | %3
w: ~ ~ ~ ~ ~ ~ ~|
 [D,F,][D,A,][D,A,][D,A,] [D,D][D,D][D,D][D,A,] | [A,,A,]6 [A,,E,][A,,E,] | %5
w: ~ ~ ~ ~ ~ ~ ~ ~|~ ~ ~|
 [A,,A,][A,,A,][A,,A,][A,,A,] [A,,A,][A,,A,][A,,A,][A,,A,] | %6
w: ~ ~ ~ ~ ~ ~ ~ ~|
 [A,,A,][C,A,][D,A,][D,A,] [A,,A,]2 [A,,A,][A,,A,] | %7
w: ~ ~ ~ ~ ~ ~ ~|
 [D,F,][D,A,][D,A,][D,D] [E,C][E,B,][E,B,][E,B,] | [A,,A,]6 || z2 | %10
w: ~ ~ ~ ~ ~ ~ ~ ~|~||
 z2 [A,,A,][A,,A,] [A,,A,][A,,A,][A,,A,][A,,A,] | %11
w: When I stand ~ ~ ~|
 [A,,A,][A,,E,][A,,E,][A,,E,] [A,,E,][A,,E,][C,A,][C,A,] | [D,D]3 [D,D] [D,D]2 [D,A,]2 | %13
w: ~ yon- der ci- ty ~ ~ ~|~ ~ ~ ~|
 [A,,A,]2 [C,A,][E,A,] A,2 z2 | z2 A,A, A,[A,C][D,A,][D,A,] | %15
w: ~ bright and fair,|Shall I see you, shall I|
 [A,,A,][A,,A,][C,A,][E,A,] A,A,[A,,A,][A,,A,] | %16
w: see you there my bro- ther? * *|
 [D,F,][D,A,][D,A,][D,D] [E,C][E,B,]!fermata![E,G,][E,G,] | [A,,A,]6 |] %18
w: ||
V:3
 x2 | x8 | x8 | x8 | x8 | x8 | x8 | x8 | x6 || x2 | x8 | x8 | x8 | x4 A,2 x2 | x2 A,A, A, x3 | %15
 x4 A,A, x2 | x8 | x6 |] %18

